dist/static/images/icons/svg/logo-mate.svg

<svg width="116" height="44" viewBox="0 0 116 44" fill="none" xmlns="http://www.w3.org/2000/svg">
<path d="M48.128 10H50.6C51.752 10 53.348 9.772 54.332 8.38C54.812 7.696 55.064 6.748 55.064 5.824C55.064 4.312 54.476 3.364 53.852 2.776C52.796 1.768 51.5 1.6 50.6 1.6H48.128V10ZM49.328 2.656H50.732C51.848 2.656 52.556 3.136 52.916 3.484C53.36 3.928 53.792 4.72 53.792 5.92C53.792 7.048 53.384 7.672 53.192 7.912C52.496 8.8 51.5 8.944 50.588 8.944H49.328V2.656ZM61.8153 7.192V6.868C61.8153 6.088 61.5993 5.212 61.1433 4.648C60.7953 4.216 60.1833 3.784 59.1153 3.784C58.1793 3.784 57.5673 4.144 57.1953 4.48C56.7513 4.876 56.2473 5.62 56.2473 6.916C56.2473 8.092 56.6673 8.824 57.0393 9.22C57.7353 9.964 58.6713 10.096 59.4153 10.096C60.4233 10.096 60.8433 9.88 61.1793 9.76L61.3473 9.7V8.572C60.8913 8.896 60.1473 9.184 59.4993 9.184C58.8153 9.184 58.2873 8.908 57.9633 8.548C57.6633 8.224 57.4593 7.732 57.4473 7.192H61.8153ZM57.4473 6.352C57.4833 5.992 57.6153 5.608 57.8313 5.308C58.0833 4.972 58.4793 4.696 59.0553 4.696C59.7033 4.696 60.0753 5.008 60.2673 5.248C60.4833 5.524 60.6273 5.92 60.6153 6.352H57.4473ZM62.9393 9.76C63.3353 9.94 63.8513 10.096 64.5353 10.096C65.1833 10.096 65.6993 9.964 66.1313 9.604C66.5153 9.28 66.7553 8.848 66.7553 8.26C66.7553 7.876 66.6473 7.552 66.4913 7.312C66.2273 6.928 65.7713 6.712 65.3873 6.532L65.2073 6.448C64.7153 6.22 64.1033 6.004 64.1033 5.416C64.1033 5.236 64.1873 5.008 64.4513 4.852C64.6433 4.744 64.9313 4.696 65.1953 4.696C65.4233 4.696 65.6513 4.732 65.8553 4.78C66.0473 4.828 66.2033 4.888 66.3713 4.984L66.4673 4.024C66.2993 3.964 65.7353 3.784 65.0633 3.784C64.3793 3.784 63.8033 3.988 63.4433 4.312C63.1793 4.552 62.9033 4.972 62.9033 5.62C62.9033 5.824 62.9393 6.1 63.1073 6.364C63.3233 6.688 63.7913 7.012 64.1993 7.192L64.4393 7.3C64.6673 7.408 65.0273 7.6 65.2553 7.78C65.4353 7.924 65.5553 8.068 65.5553 8.332C65.5553 8.596 65.4473 8.776 65.3273 8.884C65.1233 9.076 64.7753 9.184 64.4273 9.184C64.1873 9.184 63.6593 9.136 62.9993 8.764L62.9393 9.76ZM68.1983 10H69.3263V3.88H68.1983V10ZM69.3983 1.36H68.1263V2.632H69.3983V1.36ZM76.6572 3.88H75.5772V4.288H75.5532C75.2052 4.048 74.5572 3.784 73.8252 3.784C71.9052 3.784 70.8372 5.08 70.8372 6.988C70.8372 7.96 71.1012 8.752 71.5452 9.268C72.0492 9.844 72.7332 10.096 73.5132 10.096C73.9692 10.096 74.9532 9.988 75.5052 9.16H75.5292V9.676C75.5292 10.216 75.3972 10.744 75.0972 11.128C74.7012 11.632 74.1492 11.776 73.5612 11.776C72.6732 11.776 71.8452 11.44 71.4252 11.224L71.3052 12.268C72.3732 12.652 73.1652 12.688 73.5012 12.688C74.7852 12.688 75.5052 12.304 75.9012 11.92C76.5612 11.284 76.6572 10.432 76.6572 9.76V3.88ZM75.5292 7.84C75.2532 8.56 74.5812 9.184 73.7172 9.184C73.2132 9.184 72.8172 8.98 72.5412 8.656C72.1092 8.164 72.0372 7.504 72.0372 7.024C72.0372 6.208 72.2652 5.584 72.6012 5.212C72.8412 4.948 73.2132 4.696 73.7892 4.696C74.3412 4.696 75.1092 4.924 75.5292 5.392V7.84ZM78.5811 10H79.7091V5.872C79.9971 5.344 80.8131 4.696 81.6051 4.696C82.6371 4.696 82.8651 5.5 82.8651 6.832V10H83.9931V6.364C83.9931 4.588 83.4291 3.784 81.9051 3.784C81.1131 3.784 80.2011 4.264 79.7331 4.756H79.7091V3.88H78.5811V10ZM90.9833 7.192V6.868C90.9833 6.088 90.7673 5.212 90.3113 4.648C89.9633 4.216 89.3513 3.784 88.2833 3.784C87.3473 3.784 86.7353 4.144 86.3633 4.48C85.9193 4.876 85.4153 5.62 85.4153 6.916C85.4153 8.092 85.8353 8.824 86.2073 9.22C86.9033 9.964 87.8393 10.096 88.5833 10.096C89.5913 10.096 90.0113 9.88 90.3473 9.76L90.5153 9.7V8.572C90.0593 8.896 89.3153 9.184 88.6673 9.184C87.9833 9.184 87.4553 8.908 87.1313 8.548C86.8313 8.224 86.6273 7.732 86.6153 7.192H90.9833ZM86.6153 6.352C86.6513 5.992 86.7833 5.608 86.9993 5.308C87.2513 4.972 87.6473 4.696 88.2233 4.696C88.8713 4.696 89.2433 5.008 89.4353 5.248C89.6513 5.524 89.7953 5.92 89.7833 6.352H86.6153ZM97.9033 10V0.856H96.7753V4.264H96.7513C96.4033 4.024 95.7913 3.784 95.0713 3.784C93.1513 3.784 92.0833 5.08 92.0833 6.988C92.0833 7.96 92.3473 8.752 92.7913 9.268C93.2952 9.844 93.9793 10.096 94.7593 10.096C95.2153 10.096 96.2473 9.928 96.7993 9.124H96.8233V10H97.9033ZM96.7753 7.84C96.4993 8.56 95.8273 9.184 94.9633 9.184C94.4593 9.184 94.0633 8.98 93.7873 8.656C93.3553 8.164 93.2833 7.504 93.2833 7.024C93.2833 6.208 93.5113 5.584 93.8473 5.212C94.0873 4.948 94.4593 4.696 95.0353 4.696C95.5873 4.696 96.3553 4.924 96.7753 5.392V7.84ZM102.628 0.856V10H103.708V9.616H103.732C104.008 9.82 104.788 10.096 105.46 10.096C107.38 10.096 108.448 8.8 108.448 6.892C108.448 5.92 108.184 5.128 107.74 4.612C107.236 4.036 106.552 3.784 105.772 3.784C105.316 3.784 104.332 3.892 103.78 4.72H103.756V0.856H102.628ZM103.756 6.04C104.032 5.32 104.704 4.696 105.568 4.696C106.072 4.696 106.468 4.9 106.744 5.224C107.176 5.716 107.248 6.376 107.248 6.856C107.248 7.672 107.02 8.296 106.684 8.668C106.444 8.932 106.072 9.184 105.532 9.184C104.944 9.184 104.176 8.98 103.756 8.512V6.04ZM109.436 12.604L109.496 12.616C109.652 12.652 109.808 12.688 110.144 12.688C110.792 12.688 111.296 12.472 111.716 11.932C112.04 11.512 112.28 10.888 112.52 10.228L114.812 3.88H113.672L112.028 8.908H112.004L110.324 3.88H109.088L111.236 9.784L111.38 10.24L111.308 10.504C111.248 10.72 111.092 11.14 110.816 11.428C110.6 11.656 110.336 11.776 110 11.776C109.868 11.776 109.664 11.74 109.508 11.68L109.436 12.604Z" fill="white"/>
<path d="M26.9395 32.547C26.9367 35.1258 25.9952 37.619 24.2845 39.5777C22.5738 41.5365 20.2062 42.8322 17.6078 43.2317C15.0095 43.6312 12.351 43.1082 10.111 41.7568C7.87091 40.4055 6.19634 38.3145 5.38867 35.8603C7.05766 36.2733 8.82276 36.079 10.3568 35.3133C11.8908 34.5477 13.0897 33.2627 13.7312 31.6965C14.3726 30.1303 14.4132 28.3892 13.8454 26.7959C13.2775 25.2026 12.1397 23.8652 10.643 23.0317C13.1645 21.6915 16.1189 21.3663 18.8808 22.1248C21.6426 22.8834 23.9948 24.6661 25.4394 27.0956C25.6154 27.3911 25.7741 27.6961 25.9149 28.0092C26.5901 29.4303 26.9399 30.9792 26.9395 32.547Z" fill="white"/>
<path d="M10.6381 23.0328C8.37729 24.238 6.61592 26.1786 5.65752 28.5203C4.69911 30.862 4.60369 33.4581 5.38769 35.8614C3.70264 35.4481 2.23002 34.4446 1.2475 33.0401C0.264982 31.6357 -0.159545 29.9273 0.0539683 28.2371C0.267481 26.5469 1.10428 24.9917 2.40658 23.8647C3.70888 22.7377 5.3867 22.1169 7.12367 22.1192C8.35663 22.116 9.56872 22.4311 10.6381 23.0328Z" fill="white"/>
<path d="M27.345 14.8129C27.345 15.5589 27.0428 16.2744 26.5048 16.8019C25.9668 17.3294 25.2371 17.6258 24.4762 17.6258C23.7154 17.6258 22.9857 17.3294 22.4477 16.8019C21.9097 16.2744 21.6074 15.5589 21.6074 14.8129C21.6068 14.1014 21.8834 13.4166 22.3807 12.8985C22.647 12.614 22.9709 12.3872 23.3318 12.2324C23.6926 12.0777 24.0824 11.9986 24.4762 12C25.2368 12.001 25.9659 12.2977 26.5036 12.825C27.0414 13.3523 27.344 14.0672 27.345 14.8129Z" fill="white"/>
<path d="M35.1426 43.5112L38.0075 23.9082H38.3323L46.4515 39.9932L54.5244 23.9082H54.8453L57.7219 43.5112H55.7616L53.7859 29.4847L46.7183 43.5112H46.208L39.0592 29.3861L37.0719 43.5112H35.1426Z" fill="white"/>
<path d="M76.0573 29.0099V43.5103H74.1821V41.0197C73.4542 41.9145 72.5392 42.6461 71.4989 43.1654C70.0815 43.8299 68.487 44.041 66.9406 43.7689C65.3943 43.4969 63.9742 42.7553 62.8809 41.649C62.1574 40.9362 61.5877 40.0878 61.2057 39.1545C60.8238 38.2212 60.6374 37.222 60.6577 36.2165C60.6417 35.2213 60.8323 34.2332 61.2178 33.3124C61.6033 32.3915 62.1757 31.5571 62.9002 30.8599C63.5971 30.143 64.4378 29.5752 65.3693 29.1923C66.3008 28.8093 67.3031 28.6195 68.3131 28.6346C69.4578 28.6192 70.589 28.8796 71.6071 29.3928C72.6411 29.9406 73.5286 30.72 74.1976 31.6674V29.0137L76.0573 29.0099ZM68.4445 30.4391C67.4101 30.4319 66.3929 30.699 65.5006 31.2122C64.6083 31.7254 63.8741 32.4656 63.3758 33.3544C62.8526 34.2451 62.5773 35.255 62.5773 36.2829C62.5773 37.3108 62.8526 38.3206 63.3758 39.2114C63.8817 40.1129 64.6255 40.8645 65.5293 41.3874C66.408 41.8931 67.4103 42.1552 68.429 42.1456C69.4654 42.149 70.4848 41.8877 71.3868 41.3874C72.294 40.9023 73.0441 40.1773 73.5519 39.2948C74.0628 38.3867 74.3227 37.3634 74.3058 36.3265C74.327 35.5503 74.1883 34.778 73.8979 34.0556C73.6076 33.3332 73.1717 32.6757 72.6163 32.1223C72.078 31.5734 71.4291 31.1403 70.7109 30.8505C69.9927 30.5607 69.2209 30.4206 68.4445 30.4391Z" fill="white"/>
<path d="M78.1797 25.8264V23.9082H93.1617V25.8264H86.7126V43.5112H84.6828V25.8264H78.1797Z" fill="white"/>
<path d="M113.227 34.5829H103.782V32.6647H113.146C113.097 31.6265 112.819 30.6111 112.329 29.6893C111.84 28.7674 111.151 27.9613 110.312 27.327C108.699 26.044 106.685 25.3451 104.609 25.3481C101.601 25.3481 99.2167 26.4766 97.4562 28.7335L95.8672 27.5431C96.7984 26.2362 98.0619 25.1907 99.5325 24.5103C101.123 23.7594 102.87 23.3804 104.636 23.4034C106.052 23.3651 107.461 23.6046 108.781 24.1078C110.101 24.6111 111.305 25.3679 112.322 26.3338C113.327 27.263 114.121 28.3887 114.654 29.6379C115.187 30.8872 115.446 32.2321 115.415 33.5859C115.447 34.9449 115.205 36.2967 114.702 37.5634C114.199 38.8301 113.445 39.9868 112.485 40.9669C110.533 42.9887 107.908 43.9996 104.609 43.9996C100.874 43.9996 97.9602 42.6981 95.8672 40.0949L97.4408 38.916C98.2838 39.9409 99.3539 40.7641 100.57 41.323C101.786 41.882 103.115 42.1621 104.458 42.1421C106.528 42.178 108.55 41.5304 110.2 40.3034C111.857 39.0726 112.866 37.1658 113.227 34.5829Z" fill="white"/>
</svg>

<svg width="116" height="44" viewBox="0 0 116 44" fill="none" xmlns="http://www.w3.org/2000/svg"><path d="M48.128 10H50.6c1.152 0 2.748-.228 3.732-1.62.48-.684.732-1.632.732-2.556 0-1.512-.588-2.46-1.212-3.048C52.796 1.768 51.5 1.6 50.6 1.6h-2.472V10zm1.2-7.344h1.404c1.116 0 1.824.48 2.184.828.444.444.876 1.236.876 2.436 0 1.128-.408 1.752-.6 1.992-.696.888-1.692 1.032-2.604 1.032h-1.26V2.656zm12.487 4.536v-.324c0-.78-.216-1.656-.672-2.22-.348-.432-.96-.864-2.028-.864-.936 0-1.548.36-1.92.696-.444.396-.948 1.14-.948 2.436 0 1.176.42 1.908.792 2.304.696.744 1.632.876 2.376.876 1.008 0 1.428-.216 1.764-.336l.168-.06V8.572c-.456.324-1.2.612-1.848.612-.684 0-1.212-.276-1.536-.636-.3-.324-.504-.816-.516-1.356h4.368zm-4.368-.84a2.21 2.21 0 01.384-1.044 1.478 1.478 0 011.224-.612c.648 0 1.02.312 1.212.552.216.276.36.672.348 1.104h-3.168zM62.94 9.76c.396.18.912.336 1.596.336.648 0 1.164-.132 1.596-.492.384-.324.624-.756.624-1.344 0-.384-.108-.708-.264-.948-.264-.384-.72-.6-1.104-.78l-.18-.084c-.492-.228-1.104-.444-1.104-1.032 0-.18.084-.408.348-.564.192-.108.48-.156.744-.156.228 0 .456.036.66.084.192.048.348.108.516.204l.096-.96a4.417 4.417 0 00-1.404-.24c-.684 0-1.26.204-1.62.528-.264.24-.54.66-.54 1.308 0 .204.036.48.204.744.216.324.684.648 1.092.828l.24.108c.228.108.588.3.816.48.18.144.3.288.3.552a.72.72 0 01-.228.552c-.204.192-.552.3-.9.3-.24 0-.768-.048-1.428-.42l-.06.996zm5.26.24h1.127V3.88h-1.128V10zm1.2-8.64h-1.273v1.272h1.272V1.36zm7.258 2.52h-1.08v.408h-.024c-.348-.24-.996-.504-1.728-.504-1.92 0-2.988 1.296-2.988 3.204 0 .972.264 1.764.708 2.28.504.576 1.188.828 1.968.828.456 0 1.44-.108 1.992-.936h.024v.516c0 .54-.132 1.068-.432 1.452-.396.504-.948.648-1.536.648-.888 0-1.716-.336-2.136-.552l-.12 1.044c1.068.384 1.86.42 2.196.42 1.284 0 2.004-.384 2.4-.768.66-.636.756-1.488.756-2.16V3.88zM75.53 7.84c-.276.72-.948 1.344-1.812 1.344-.504 0-.9-.204-1.176-.528-.432-.492-.504-1.152-.504-1.632 0-.816.228-1.44.564-1.812a1.54 1.54 0 011.188-.516c.552 0 1.32.228 1.74.696V7.84zM78.581 10h1.128V5.872c.288-.528 1.104-1.176 1.896-1.176 1.032 0 1.26.804 1.26 2.136V10h1.128V6.364c0-1.776-.564-2.58-2.088-2.58-.792 0-1.704.48-2.172.972h-.024V3.88h-1.128V10zm12.402-2.808v-.324c0-.78-.216-1.656-.672-2.22-.348-.432-.96-.864-2.028-.864-.936 0-1.548.36-1.92.696-.444.396-.948 1.14-.948 2.436 0 1.176.42 1.908.792 2.304.696.744 1.632.876 2.376.876 1.008 0 1.428-.216 1.764-.336l.168-.06V8.572c-.456.324-1.2.612-1.848.612-.684 0-1.212-.276-1.536-.636-.3-.324-.504-.816-.516-1.356h4.368zm-4.368-.84A2.21 2.21 0 0187 5.308a1.478 1.478 0 011.224-.612c.648 0 1.02.312 1.212.552.216.276.36.672.348 1.104h-3.168zM97.903 10V.856h-1.128v3.408h-.024c-.348-.24-.96-.48-1.68-.48-1.92 0-2.988 1.296-2.988 3.204 0 .972.264 1.764.708 2.28.504.576 1.188.828 1.968.828.456 0 1.488-.168 2.04-.972h.024V10h1.08zm-1.128-2.16c-.276.72-.948 1.344-1.812 1.344-.504 0-.9-.204-1.176-.528-.432-.492-.504-1.152-.504-1.632 0-.816.228-1.44.564-1.812a1.54 1.54 0 011.188-.516c.552 0 1.32.228 1.74.696V7.84zm5.853-6.984V10h1.08v-.384h.024c.276.204 1.056.48 1.728.48 1.92 0 2.988-1.296 2.988-3.204 0-.972-.264-1.764-.708-2.28-.504-.576-1.188-.828-1.968-.828-.456 0-1.44.108-1.992.936h-.024V.856h-1.128zm1.128 5.184c.276-.72.948-1.344 1.812-1.344.504 0 .9.204 1.176.528.432.492.504 1.152.504 1.632 0 .816-.228 1.44-.564 1.812-.24.264-.612.516-1.152.516-.588 0-1.356-.204-1.776-.672V6.04zm5.68 6.564l.06.012c.156.036.312.072.648.072.648 0 1.152-.216 1.572-.756.324-.42.564-1.044.804-1.704l2.292-6.348h-1.14l-1.644 5.028h-.024l-1.68-5.028h-1.236l2.148 5.904.144.456-.072.264c-.06.216-.216.636-.492.924a1.07 1.07 0 01-.816.348c-.132 0-.336-.036-.492-.096l-.072.924zM26.94 32.547a10.703 10.703 0 01-2.655 7.03 11.1 11.1 0 01-6.677 3.655c-2.599.4-5.257-.124-7.497-1.475a10.863 10.863 0 01-4.722-5.897 7.241 7.241 0 004.968-.547 7.028 7.028 0 003.374-3.617 6.849 6.849 0 00.114-4.9 7.01 7.01 0 00-3.202-3.764 11.234 11.234 0 018.238-.907 11.01 11.01 0 016.558 4.97c.176.296.335.601.476.914a10.564 10.564 0 011.024 4.538zm-16.302-9.514a10.916 10.916 0 00-4.98 5.487 10.644 10.644 0 00-.27 7.341 7.116 7.116 0 01-4.14-2.82 6.87 6.87 0 01-1.194-4.804 6.934 6.934 0 012.353-4.372 7.196 7.196 0 014.717-1.746 7.132 7.132 0 013.514.914zm16.707-8.22c0 .746-.302 1.461-.84 1.989a2.898 2.898 0 01-2.029.824 2.9 2.9 0 01-2.028-.824 2.785 2.785 0 01-.84-1.99 2.755 2.755 0 01.773-1.913 2.83 2.83 0 01.95-.667A2.904 2.904 0 0124.476 12c.76.001 1.49.298 2.028.825a2.79 2.79 0 01.841 1.988zm7.798 28.698l2.864-19.603h.325l8.12 16.085 8.072-16.085h.321l2.877 19.603h-1.96l-1.976-14.026-7.068 14.026h-.51l-7.149-14.125-1.987 14.125h-1.93zM76.057 29.01v14.5h-1.875v-2.49a8.148 8.148 0 01-2.683 2.145 7.631 7.631 0 01-4.558.604 7.544 7.544 0 01-4.06-2.12 7.481 7.481 0 01-1.675-2.495 7.363 7.363 0 01-.548-2.938 7.218 7.218 0 01.56-2.904A7.337 7.337 0 0162.9 30.86a7.328 7.328 0 012.47-1.668 7.45 7.45 0 012.943-.557 7.109 7.109 0 013.294.758 7.423 7.423 0 012.59 2.274v-2.653l1.86-.004zm-7.612 1.43a5.826 5.826 0 00-2.944.772 5.678 5.678 0 00-2.125 2.142 5.78 5.78 0 00-.799 2.929 5.78 5.78 0 00.799 2.928 5.792 5.792 0 002.153 2.176 5.708 5.708 0 002.9.759 6.06 6.06 0 002.958-.759 5.47 5.47 0 002.165-2.092c.51-.908.77-1.932.754-2.968a5.671 5.671 0 00-.408-2.271 5.764 5.764 0 00-1.282-1.934 5.606 5.606 0 00-1.905-1.271 5.696 5.696 0 00-2.266-.412zm9.735-4.614v-1.918h14.982v1.918h-6.45v17.685h-2.03V25.826H78.18zm35.047 8.757h-9.445v-1.918h9.364a7.044 7.044 0 00-.817-2.976 7.186 7.186 0 00-2.017-2.362 9.144 9.144 0 00-5.703-1.979c-3.008 0-5.392 1.129-7.153 3.386l-1.589-1.19a9.282 9.282 0 013.665-3.034 11.62 11.62 0 015.104-1.107 10.818 10.818 0 014.145.705 10.65 10.65 0 013.541 2.226 9.669 9.669 0 012.332 3.304 9.502 9.502 0 01.761 3.948c.032 1.359-.21 2.71-.713 3.977a10.298 10.298 0 01-2.217 3.404c-1.952 2.022-4.577 3.033-7.876 3.033-3.735 0-6.649-1.302-8.742-3.905l1.574-1.179a8.816 8.816 0 003.129 2.407 8.99 8.99 0 003.888.82 9.354 9.354 0 005.742-1.84c1.657-1.23 2.666-3.137 3.027-5.72z" fill="#fff"/></svg>
